dist/img/logo.svg

<svg width="180" height="58" viewBox="0 0 180 58" fill="none" xmlns="http://www.w3.org/2000/svg">
<path fill-rule="evenodd" clip-rule="evenodd" d="M28.9905 20.9453C32.9217 20.9453 36.195 23.7508 36.9087 27.4636H180V29.9991H36.9896C36.4899 33.9606 33.0986 37.0257 28.9905 37.0257C24.5376 37.0257 20.9282 33.4263 20.9282 28.9852C20.9282 24.6959 24.7022 20.9453 28.9905 20.9453ZM28.9905 24.205C31.6386 24.205 33.7845 26.3449 33.7845 28.9852C33.7845 31.6258 31.6389 33.766 28.9905 33.766C26.3428 33.766 24.1959 31.6255 24.1959 28.9852C24.1959 28.3956 24.3033 27.8305 24.4989 27.3099C24.9129 26.2044 25.7271 25.2927 26.7649 24.7502C27.4293 24.4024 28.1872 24.205 28.9905 24.205Z" fill="#FF5500"/>
<path fill-rule="evenodd" clip-rule="evenodd" d="M6.52907 38.8708C6.51991 41.773 9.98556 46.1833 11.9615 47.1285L18.2916 40.4584C16.754 38.832 15.5538 37.1095 14.6417 35.3047L6.52907 38.8708Z" fill="#D4D4D4"/>
<path fill-rule="evenodd" clip-rule="evenodd" d="M16.7865 50.1743C18.5062 52.5142 23.9221 54.0094 26.0741 53.5996L27.1939 44.4847C24.9882 44.0861 22.9962 43.4119 21.188 42.5L16.7865 50.1743Z" fill="#C4C4C4"/>
<path fill-rule="evenodd" clip-rule="evenodd" d="M31.4968 53.228C34.2653 54.1227 39.5344 52.1776 41.0401 50.5887L36.6026 42.543C34.5798 43.5064 32.5688 44.1214 30.5671 44.4358L31.4968 53.228Z" fill="#A3A3A3"/>
<path fill-rule="evenodd" clip-rule="evenodd" d="M45.2217 47.1202C47.9923 46.2309 51.1241 41.579 51.4144 39.4132L43.0949 35.4766C42.0199 37.4374 40.7485 39.1087 39.3107 40.5321L45.2217 47.1202Z" fill="#828282"/>
<path fill-rule="evenodd" clip-rule="evenodd" d="M4.94186 24.0273C3.23818 26.3797 3.47658 31.9774 4.53044 33.8949L13.5718 32.1535C13.273 29.9385 13.3043 27.8411 13.6181 25.8443L4.94186 24.0273Z" fill="#FF9473"/>
<path fill-rule="evenodd" clip-rule="evenodd" d="M12.412 10.9648C9.64787 11.8724 6.54836 16.5461 6.27332 18.714L14.6193 22.5943C15.6813 20.6258 16.9407 18.9449 18.3688 17.5113L12.412 10.9648Z" fill="#FF754D"/>
<path fill-rule="evenodd" clip-rule="evenodd" d="M26.1104 4.76287C23.3365 3.88497 18.0799 5.8633 16.5839 7.46078L21.0721 15.4791C23.088 14.5038 25.0957 13.8763 27.0953 13.5488L26.1104 4.76287Z" fill="#FF5E2E"/>
<path fill-rule="evenodd" clip-rule="evenodd" d="M41.1611 7.90399C39.4623 5.54837 34.0601 4.00544 31.904 4.39644L30.7034 13.501C32.9052 13.9186 34.8913 14.6111 36.6915 15.5385L41.1611 7.90399Z" fill="#FF5500"/>
<path fill-rule="evenodd" clip-rule="evenodd" d="M51.1583 18.9449C51.1479 16.0437 47.6507 11.6583 45.6681 10.7266L39.3862 17.441C40.9347 19.0568 42.1475 20.7707 43.0729 22.5691L51.1583 18.9449Z" fill="#FF5500"/>
<path d="M71.2755 13.6289C72.0136 13.6289 72.5286 13.922 72.825 14.5104C72.9512 14.7631 73.0133 15.0455 73.0133 15.3621V23.9425H70.8814V19.9118H59.7041V23.9425H57.5411V15.3624C57.5411 14.6365 57.835 14.129 58.4243 13.8332C58.6777 13.6961 58.9662 13.6292 59.2927 13.6292H71.2755V13.6289ZM70.5827 15.693H60.0038C59.8341 15.693 59.7341 15.7704 59.7041 15.9295C59.6936 15.9592 59.6883 15.9858 59.6883 16.0076C59.6883 16.1119 59.6936 16.7244 59.7041 17.8479H70.8814V16.0234C70.8814 15.8544 70.8038 15.7491 70.6447 15.7087C70.6231 15.6983 70.602 15.693 70.5827 15.693ZM88.0279 17.8342C88.1951 17.8342 88.2943 17.7535 88.3266 17.5982C88.3378 17.566 88.3427 17.5386 88.3427 17.5176V16.0074C88.3427 15.8374 88.2645 15.7331 88.106 15.6927C88.0732 15.6826 88.0495 15.6768 88.0279 15.6768H77.2598V17.8342H88.0279ZM84.0023 19.9118H77.2275V23.9425H75.1123V13.6289H88.6905C89.4263 13.6289 89.9433 13.922 90.2377 14.5104C90.3639 14.7631 90.426 15.0455 90.426 15.3621V18.1646C90.426 18.8979 90.1374 19.4114 89.5586 19.7072C89.297 19.8443 89.006 19.9115 88.6905 19.9115H86.686L90.7112 23.9422H88.0279L84.0023 19.9118ZM92.5276 13.6289H107.841V15.693H101.196V23.9425H99.0648V15.693H92.5276V13.6289Z" fill="#FF5500"/>
<path d="M125.243 13.6289V23.9425H123.141V17.2676L117.615 20.8871L112.042 17.2676V23.9425H109.943V13.6289L117.615 18.6515L125.243 13.6289ZM142.815 22.1961C142.815 22.9187 142.526 23.4345 141.947 23.738C141.693 23.8753 141.405 23.9425 141.077 23.9425H129.142C128.425 23.9425 127.905 23.6629 127.579 23.1065C127.42 22.8355 127.342 22.5313 127.342 22.1961V15.3624C127.342 14.6692 127.63 14.164 128.21 13.8499C128.484 13.7017 128.794 13.6292 129.143 13.6292H141.077C141.815 13.6292 142.33 13.9222 142.626 14.5106C142.753 14.7633 142.815 15.0457 142.815 15.3624V22.1961ZM140.7 21.5645V16.0074C140.7 15.8374 140.621 15.7384 140.462 15.7082C140.441 15.6981 140.419 15.6927 140.4 15.6927H129.772C129.606 15.6927 129.506 15.7701 129.474 15.9292C129.463 15.9589 129.457 15.9855 129.457 16.0074V21.5643C129.457 21.7333 129.563 21.833 129.772 21.8647H140.4C140.568 21.865 140.667 21.7627 140.7 21.5645ZM144.914 13.6289H160.228V15.693H153.583V23.9425H151.451V15.693H144.914V13.6289ZM177.801 22.1961C177.801 22.9187 177.513 23.4345 176.934 23.738C176.68 23.8753 176.392 23.9425 176.064 23.9425H164.129C163.412 23.9425 162.892 23.6629 162.566 23.1065C162.407 22.8355 162.329 22.5313 162.329 22.1961V15.3624C162.329 14.6692 162.617 14.164 163.197 13.8499C163.472 13.7017 163.781 13.6292 164.129 13.6292H176.064C176.802 13.6292 177.317 13.9222 177.613 14.5106C177.739 14.7633 177.801 15.0457 177.801 15.3624V22.1961ZM175.686 21.5645V16.0074C175.686 15.8374 175.608 15.7384 175.449 15.7082C175.428 15.6981 175.406 15.6927 175.387 15.6927H164.76C164.593 15.6927 164.492 15.7701 164.46 15.9292C164.45 15.9589 164.444 15.9855 164.444 16.0074V21.5643C164.444 21.7333 164.549 21.833 164.76 21.8647H175.387C175.555 21.865 175.654 21.7627 175.686 21.5645Z" fill="white"/>
<path d="M60.8361 37.9856C60.8361 38.0865 60.8814 38.1462 60.9737 38.1634C60.9849 38.17 60.9979 38.1726 61.0099 38.1726H68.0493V39.3118H60.6099C60.2249 39.3118 59.9435 39.1532 59.771 38.8355C59.6891 38.6871 59.6497 38.5232 59.6497 38.3426V34.6787C59.6497 34.2872 59.8107 34.0119 60.1344 33.8528C60.274 33.7782 60.4315 33.7427 60.6099 33.7427H68.1104V34.8568H61.0437C60.9045 34.8568 60.8361 34.9352 60.8361 35.0956V37.9856ZM85.9431 38.3689C85.9431 38.7587 85.7851 39.0378 85.4666 39.2017C85.3287 39.2753 85.1702 39.3118 84.99 39.3118H78.4434C78.0508 39.3118 77.7646 39.1613 77.5867 38.8602C77.4995 38.7133 77.4562 38.5493 77.4562 38.3687V34.6784C77.4562 34.3032 77.6147 34.0312 77.9318 33.8609C78.0829 33.781 78.2531 33.7422 78.4434 33.7422H84.99C85.3948 33.7422 85.6765 33.8998 85.8403 34.2174C85.9093 34.3547 85.9434 34.5067 85.9434 34.6782V38.3689H85.9431ZM84.7824 38.0277V35.0271C84.7824 34.9352 84.7399 34.8814 84.6526 34.8652C84.6414 34.8599 84.6295 34.8566 84.6193 34.8566H78.7894C78.6973 34.8566 78.6429 34.8984 78.6251 34.9839C78.6197 35.0007 78.6164 35.0151 78.6164 35.0268V38.0274C78.6164 38.1193 78.6742 38.1726 78.7894 38.1898H84.6193C84.7112 38.1898 84.7651 38.135 84.7824 38.0277ZM103.68 33.7424V39.3118H102.527V35.7076L99.4955 37.6618L96.438 35.7076V39.3118H95.2875V33.7424L99.4953 36.4548L103.68 33.7424ZM120.109 36.0136C120.201 36.0136 120.255 35.9699 120.273 35.8857C120.279 35.8684 120.282 35.854 120.282 35.8421V35.0271C120.282 34.9352 120.239 34.8786 120.151 34.8566C120.134 34.8512 120.121 34.8479 120.109 34.8479H114.202V36.0204L119.684 36.0133H120.109V36.0136ZM120.473 37.1351H114.185V39.312H113.025V33.7427H120.473C120.876 33.7427 121.16 33.9003 121.321 34.2179C121.39 34.3552 121.424 34.5072 121.424 34.6787V36.1914C121.424 36.5878 121.266 36.8651 120.948 37.0254C120.805 37.099 120.646 37.1351 120.473 37.1351ZM138.305 33.7424C138.71 33.7424 138.992 33.9 139.155 34.2177C139.224 34.3549 139.258 34.5069 139.258 34.6784V39.3118H138.088V37.1348H131.958V39.3118H130.772V34.6784C130.772 34.2869 130.932 34.0116 131.256 33.8526C131.396 33.778 131.552 33.7424 131.732 33.7424H138.305ZM137.924 34.8566H132.122C132.028 34.8566 131.973 34.8984 131.958 34.9839C131.952 35.0007 131.949 35.0151 131.949 35.0268C131.949 35.0831 131.952 35.4145 131.958 36.0204H138.088V35.0354C138.088 34.9436 138.046 34.8875 137.959 34.8649C137.947 34.8599 137.935 34.8566 137.924 34.8566ZM155.929 37.4152V33.7424H157.098V39.3118L149.77 35.6386V39.3118H148.603V33.7424L155.929 37.4152ZM170.599 35.8684L173.084 33.7424H174.826L171.18 36.8704V39.3118H170.028V36.8704L166.443 33.7424H168.184L170.599 35.8684Z" fill="#FF5500"/>
<path fill-rule="evenodd" clip-rule="evenodd" d="M29.08 0C29.7993 0 30.5125 0.0268953 31.2188 0.0778949L30.2239 1.42165C14.4984 0.797472 1.40117 13.2858 1.40117 29C1.40117 32.2376 1.96143 35.3432 2.98883 38.2299L1.994 39.5734C0.706817 36.2973 0 32.7313 0 29C0 12.9841 13.0196 0 29.08 0V0ZM44.4163 4.35704C48.9101 7.14477 52.5851 11.1192 55.0017 15.8413C54.5369 15.9532 54.0901 16.1126 53.6685 16.3161C51.3911 11.9357 47.9715 8.24113 43.8043 5.62493C44.0565 5.21795 44.2605 4.79295 44.4163 4.35704ZM11.0205 49.9164C15.868 54.0832 22.179 56.6022 29.08 56.6022C39.8683 56.6022 49.2141 50.4467 53.7804 41.4665C54.2117 41.6499 54.6679 41.7897 55.1406 41.8793C50.3827 51.4322 40.5015 58 29.0798 58C21.7653 58 15.0811 55.3059 9.9705 50.8596C10.3466 50.587 10.6997 50.2724 11.0205 49.9164Z" fill="#FF5500"/>
</svg>

<svg width="180" height="58" fill="none" xmlns="http://www.w3.org/2000/svg"><path fill-rule="evenodd" clip-rule="evenodd" d="M28.99 20.945a8.06 8.06 0 017.919 6.519H180v2.535H36.99c-.5 3.962-3.891 7.027-8 7.027-4.452 0-8.062-3.6-8.062-8.04 0-4.29 3.774-8.04 8.063-8.04zm0 3.26a4.787 4.787 0 014.795 4.78 4.788 4.788 0 01-4.794 4.781 4.788 4.788 0 01-4.795-4.78c0-.59.107-1.155.303-1.676a4.794 4.794 0 014.492-3.105z" fill="#F50"/><path fill-rule="evenodd" clip-rule="evenodd" d="M6.53 38.87c-.01 2.903 3.456 7.313 5.431 8.259l6.33-6.67a21.768 21.768 0 01-3.65-5.154L6.53 38.87z" fill="#D4D4D4"/><path fill-rule="evenodd" clip-rule="evenodd" d="M16.787 50.174c1.72 2.34 7.135 3.835 9.287 3.426l1.12-9.115c-2.206-.399-4.198-1.073-6.006-1.985l-4.401 7.674z" fill="#C4C4C4"/><path fill-rule="evenodd" clip-rule="evenodd" d="M31.497 53.228c2.768.895 8.037-1.05 9.543-2.64l-4.437-8.045c-2.023.963-4.034 1.578-6.036 1.893l.93 8.792z" fill="#A3A3A3"/><path fill-rule="evenodd" clip-rule="evenodd" d="M45.222 47.12c2.77-.89 5.902-5.541 6.192-7.707l-8.32-3.936a21.804 21.804 0 01-3.783 5.055l5.91 6.588z" fill="#828282"/><path fill-rule="evenodd" clip-rule="evenodd" d="M4.942 24.027c-1.704 2.353-1.465 7.95-.412 9.868l9.042-1.742a21.706 21.706 0 01.046-6.309l-8.676-1.817z" fill="#FF9473"/><path fill-rule="evenodd" clip-rule="evenodd" d="M12.412 10.965c-2.764.907-5.864 5.581-6.139 7.749l8.346 3.88a21.825 21.825 0 013.75-5.083l-5.957-6.546z" fill="#FF754D"/><path fill-rule="evenodd" clip-rule="evenodd" d="M26.11 4.763c-2.773-.878-8.03 1.1-9.526 2.698l4.488 8.018c2.016-.975 4.024-1.603 6.023-1.93l-.985-8.786z" fill="#FF5E2E"/><path fill-rule="evenodd" clip-rule="evenodd" d="M41.161 7.904c-1.699-2.356-7.1-3.899-9.257-3.508l-1.2 9.105a21.892 21.892 0 015.987 2.038l4.47-7.635zm9.997 11.041c-.01-2.901-3.507-7.287-5.49-8.218l-6.282 6.714a21.809 21.809 0 013.687 5.128l8.085-3.624z" fill="#F50"/><path d="M71.275 13.629c.739 0 1.254.293 1.55.881.126.253.188.536.188.852v8.58h-2.132v-4.03H59.704v4.03h-2.163v-8.58c0-.726.294-1.233.883-1.529.254-.137.542-.204.869-.204h11.982zm-.692 2.064h-10.58c-.169 0-.269.077-.299.237a.242.242 0 00-.016.078l.016 1.84h11.177v-1.825c0-.169-.077-.274-.236-.314a.145.145 0 00-.062-.016zm17.445 2.141c.167 0 .266-.08.299-.236a.254.254 0 00.016-.08v-1.51c0-.17-.079-.275-.237-.315a.274.274 0 00-.078-.016H77.26v2.157h10.768zm-4.026 2.078h-6.774v4.03h-2.116V13.63h13.579c.735 0 1.252.293 1.547.881.126.253.188.536.188.852v2.803c0 .733-.289 1.246-.867 1.542a1.845 1.845 0 01-.868.204h-2.005l4.025 4.031h-2.683l-4.026-4.03zm8.526-6.283h15.313v2.064h-6.645v8.25h-2.131v-8.25h-6.537v-2.064z" fill="#F50"/><path d="M125.243 13.629v10.313h-2.102v-6.674l-5.526 3.62-5.573-3.62v6.674h-2.099V13.63l7.672 5.022 7.628-5.022zm17.572 8.567c0 .723-.289 1.238-.868 1.542a1.794 1.794 0 01-.87.204h-11.935c-.717 0-1.237-.28-1.563-.835a1.766 1.766 0 01-.237-.91v-6.835c0-.693.288-1.198.868-1.512.274-.148.584-.22.933-.22h11.934c.738 0 1.253.292 1.549.88.127.253.189.536.189.852v6.834zm-2.115-.632v-5.557c0-.17-.079-.269-.238-.299a.148.148 0 00-.062-.015h-10.628c-.166 0-.266.077-.298.236a.234.234 0 00-.017.078v5.557c0 .17.106.269.315.3H140.4c.168.001.267-.101.3-.3zm4.214-7.935h15.314v2.064h-6.645v8.25h-2.132v-8.25h-6.537v-2.064zm32.887 8.567c0 .723-.288 1.238-.867 1.542a1.794 1.794 0 01-.87.204h-11.935c-.717 0-1.237-.28-1.563-.835a1.766 1.766 0 01-.237-.91v-6.835c0-.693.288-1.198.868-1.512a1.93 1.93 0 01.932-.22h11.935c.738 0 1.253.292 1.549.88.126.253.188.536.188.852v6.834zm-2.115-.632v-5.557c0-.17-.078-.269-.237-.299a.148.148 0 00-.062-.015H164.76c-.167 0-.268.077-.3.236a.257.257 0 00-.016.078v5.557c0 .17.105.269.316.3h10.627c.168.001.267-.101.299-.3z" fill="#fff"/><path d="M60.836 37.986c0 .1.045.16.138.177.01.007.024.01.036.01h7.04v1.139h-7.44c-.385 0-.666-.159-.839-.476a1 1 0 01-.121-.493v-3.664c0-.392.16-.667.484-.826a.99.99 0 01.476-.11h7.5v1.114h-7.066c-.14 0-.208.078-.208.239v2.89zm25.107.383c0 .39-.158.669-.476.833a.996.996 0 01-.477.11h-6.547c-.392 0-.678-.15-.856-.452a.945.945 0 01-.13-.491v-3.69c0-.376.158-.648.475-.818.15-.08.321-.119.511-.119h6.547c.405 0 .687.158.85.475.07.138.103.29.103.461v3.69zm-1.16-.341v-3c0-.093-.043-.147-.13-.163a.081.081 0 00-.034-.008h-5.83c-.092 0-.146.041-.164.127a.148.148 0 00-.009.043v3c0 .092.058.146.173.163h5.83c.092 0 .146-.055.163-.162zm18.897-4.286v5.57h-1.153v-3.604l-3.031 1.954-3.058-1.954v3.604h-1.15v-5.57l4.207 2.713 4.185-2.713zm16.429 2.272c.092 0 .146-.044.164-.128a.137.137 0 00.009-.044v-.815c0-.092-.043-.148-.131-.17a.143.143 0 00-.042-.01h-5.907v1.173l5.482-.007h.425zm.364 1.121h-6.288v2.177h-1.16v-5.57h7.448c.403 0 .687.158.848.476.069.137.103.29.103.46v1.513c0 .397-.158.674-.476.834a1.02 1.02 0 01-.475.11zm17.832-3.393c.405 0 .687.158.85.476.069.137.103.289.103.46v4.634h-1.17v-2.177h-6.13v2.177h-1.186v-4.634c0-.391.16-.666.484-.825a.988.988 0 01.476-.11h6.573zm-.381 1.115h-5.802c-.094 0-.149.041-.164.127a.132.132 0 00-.009.043l.009.993h6.13v-.985c0-.091-.042-.147-.129-.17a.094.094 0 00-.035-.008zm18.005 2.558v-3.673h1.169v5.57l-7.328-3.673v3.673h-1.167v-5.57l7.326 3.673zm14.67-1.547l2.485-2.126h1.742l-3.646 3.128v2.442h-1.152V36.87l-3.585-3.128h1.741l2.415 2.126z" fill="#F50"/><path fill-rule="evenodd" clip-rule="evenodd" d="M29.08 0c.72 0 1.433.027 2.139.078l-.995 1.344C14.498.797 1.4 13.286 1.4 29c0 3.238.56 6.343 1.588 9.23l-.995 1.343A28.849 28.849 0 010 29C0 12.984 13.02 0 29.08 0zm15.336 4.357a29.18 29.18 0 0110.586 11.484 6.643 6.643 0 00-1.334.475 27.768 27.768 0 00-9.864-10.691c.252-.407.456-.832.612-1.268zm-33.395 45.56a27.61 27.61 0 0018.059 6.685c10.788 0 20.134-6.155 24.7-15.135.432.183.888.323 1.36.412C50.384 51.432 40.502 58 29.08 58a29.017 29.017 0 01-19.11-7.14c.377-.273.73-.588 1.05-.944z" fill="#F50"/></svg>
